X:1
T:Sei getreu bis an den Tod
T:Sei getreu bis an den Tod
T:David Hermann Engel
T:CPDL   —   Creative Commons Attribution Non Commercial 3.0
T:CPDL   —   Creative Commons Attribution Non Commercial 3.0
T:CPDL   —   Creative Commons Attribution Non Commercial 3.0
T:CPDL   —   Creative Commons Attribution Non Commercial 3.0
C:David Hermann Engel
Z:CPDL   —   Creative Commons Attribution Non Commercial 3.0
%%score [ 1 2 3 4 ]
L:1/8
M:4/4
K:A
V:1 treble nm="Sopran"
V:2 treble nm="Alt"
V:3 treble-8 nm="Tenor"
V:4 bass nm="Bass"
V:1
!p!"^Soli; Wiederholung Chor"!<(! (c4 d2)!<)! G2 | A2!>(! A2 G2 F2!>)! |!p! E8- | E6 z2 | %4
w: Sei _ ge-|treu bis in den|Tod,|_|
!p!!<(! (c4 d2) BG!<)! |"^cresc." e8- |!f! e2 ^dc B2 A2 |!>(! (A4!>)! !fermata!G4) :| %8
w: sei _ ge- *|treu|_ bis _ in den|Tod, _|
"^Sopran" z2!mf! G2 B2 E2 | A6!<(! A2 | d2!<)! dd!f! e2 B2 |!>(! !>!d4!>)! c2!p! cd | %12
w: so will ich|dir die|Kro- ne des Le- bens|ge- ben, so _|
 e2 c2 A2!<(! Bc | d2!<)! BB G2 AB |!>(! c4 c2!>)! z2 | z8 | z4 z2!p!"^dolce" c2 | c2 de f2 d2 | %18
w: will ich dir die _|Kro- ne des Le- bens _|ge- ben,||so|will ich _ dir die|
 B2 cd e2 cc | A2 Bc d2 c2 |!>(! B4 B4!>)! |!p!"^Soli"!<(! (c4!<)! ed)!>(! BG | %22
w: Kro- ne des Le- bens, die|Kro- ne des Le- bens|ge- ben.|Sei _ _ ge- *|
 A2!>)!!mf! A2!>(! G2 F2!>)! |!p! E8- | E6 z2 |!p!"^Chor"!<(! (c4!<)! d2)!>(! B^G | %26
w: treu bis in den|Tod,|_|sei _ ge- *|
 c2!>)!!p!!<(! B2 A2!<)! G2 | A6!mf! Bc | d6!<(! ^d2 | e4!<)! G2 AB | c6!f! de | !>!f2 d2 B2 cd | %32
w: treu bis in den|Tod, ge- *|treu, ge-|treu, sei ge- *|treu so _|will ich dir die _|
 (!>!e2 c2) A2 Bc | (d2 B2) G2 AB | c4 B2 F2 | A4 A4 |!>(! (A4 G4)!>)! | !fermata!A6 z2 |] %38
w: Kro- * ne des *|Le- * bens, die *|Kro- ne des|Le- bens|ge- *|ben.|
V:2
!p!!<(! E6!<)! E2 | E2!>(! C2 C2 D2!>)! |!p! (E4 D4- | D2 CB, C2) z2 |!p!!<(! E6 E2!<)! | %5
w: Sei ge-|treu bis in den|Tod, _|_ _ _ _|sei ge-|
 E2 G2"^cresc." A2 B2 |!f! c2 BA G2 F2 |!>(! (F4!>)! !fermata!E4) :|"^Alt"!mf! E4 D2 D2 | %9
w: treu bis in den|Tod, bis _ in den|Tod, _|so will ich|
 C2 C2 (F2!<(! E2 | D2)!<)! EF!f! G2 G2 |!>(! !>!B4!>)! A2!p! AB | c2 A2 F2!<(! GA | %13
w: dir die Kro- *|* ne des Le- bens|ge- ben, so _|will ich dir die *|
 B2!<)! GG E2 FG |!>(! A4 A2!>)! z2 | z8 | z4 z2!p!"^dolce" A2 | A2 Bc d2 B2 | G2 AB c2 AA | %19
w: Kro- ne des Le- bens _|ge- ben,||so|||
 F2 GA B2 A2 |!>(! (A2 GF) G4!>)! |!p!!<(! E6!<)!!>(! E2 | E2!>)!!mf! C2!>(! C2 D2!>)! | %23
w: ||||
!p! (E4 D4- | D2 CB, C2) z2 |!p!!<(! (E4!<)! D2)!>(! D2 | C2!>)!!p!!<(! G2 F2!<)! ^E2 | F8 | %28
w: ||||Tod,|
!mf! F6 =F2 | E8- | E6!f! F=G | (F4 ^G2) E2 | (E4 F2) E2 | D4 E2 E2 | E4 F2 F2 | E4 (F2 E2) | %36
w: sei ge-|treu,|_ so _|will _ ich|dir _ die|Kro- ne, *|||
!>(! (D4 E2 D2)!>)! | !fermata!C6 z2 |] %38
w: ||
V:3
!p!!<(! (A4 G2)!<)! B2 | A8- | A2!<(! E2 E2!<)! FG | A6 z2 |!p!!<(! (A4 G2) B2!<)! | %5
w: Sei _ ge-|treu|_ bis in den _|Tod,|sei _ ge-|
 A2 B2"^cresc." c2 B2 |!f! A2 A2 B2 B2 |!>(! !fermata!B8!>)! :| z8 | z8 | z8 | z8 | z8 | %13
w: treu bis in den|Tod, bis in den|Tod,||||||
 z2!mf! G2 B2 E2 | A6"^cresc." A2 | d2 dd e2 B2 | !>!d4!>(! c2!>)!!p!"^dolce" cd | e2 c2 A2 Bc | %18
w: so will ich|dir die|Kro- ne des Le- bens|ge- ben, so _|will ich dir die _|
 (d2 B2) G2 AB | (c2 A2 F2) F2 |!>(! (B4 e2) =d2!>)! |!p!!<(! (c2 A2!<)! G2) B2 | A8- | %23
w: Kro- * ne des _|Le- * * bens|ge- * ben.|Sei- * * ge-|treu|
 A2!<(! E2 E2!<)! FG | A6 z2 |!p!!<(! (=G4!<)! F2)!>(! F2 | ^E4!>)!!p!!<(! c3 c!<)! | c8 | %28
w: _ bis in den _|Tod,|sei _ ge-|treu, sei ge-|treu,|
 z2!mf! d4!<(! =c2 | B4!<)! d2 ^cB | A6!f! A2 | (A4 ^G2) AB | c2 A2 (F2 GA | B2 G2) E2 FG | %34
w: sei ge-|treu, sei ge- *|treu, so|will _ ich _|dir die Kro- * *|* * ne, die _|
 A4 F2 d2 | c4 (d2 c2) |!>(! B8!>)! | !fermata!A6 z2 |] %38
w: Kro- ne des|Le- bens _|ge-|ben.|
V:4
!p!!<(! (A,,4 B,,2)!<)! D,2 | C,2!>(! F,2 E,2 D,2!>)! |!p! (C,4 B,,4 | A,,6) z2 | %4
w: Sei _ ge-|treu bis in den|Tod, _|_|
!p!!<(! (A,,4 B,,2) D,2!<)! | C,2 E,2"^cresc." A,2 G,2 |!f! F,2 F,2 G,2 ^D,2 | %7
w: sei _ ge-|treu bis in den|Tod, bis in den|
!>(! (^D,4!>)! !fermata!E,4) :| z8 | z8 | z8 | z8 | z8 |!mf! E,4 D,2 D,2 | %14
w: Tod, _||||||so will ich|
 C,2 C,2 (F,2"^cresc." E,2 | D,2) E,F, G,2 G,2 | !>!B,4!>(! A,2!>)!!p!"^dolce" A,B, | %17
w: dir die Kro- *|* ne des Le- bens|ge- ben, so _|
 C2 A,2 F,2 G,A, | (B,2 G,2) E,2 F,G, | (A,2 F,2 D,2) ^D,2 |!>(! E,4 E,4!>)! | %21
w: _ _ _ _ _||||
!p!!<(! (A,,4!<)! B,,2) D,2 | C,2!mf! F,2!>(! E,2 D,2!>)! |!p! (C,4 B,,4 | A,,6) z2 | %25
w: Sei _ ge-|treu bis in den|Tod, _|_|
!p!!<(! (A,,4!<)! B,,2)!>(! B,,2 | C,4!>)!!p!!<(! C,3 C,!<)! | F,2!mf! F,4 G,A, | B,6!<(! A,2 | %29
w: sei _ ge-|treu, sei ge-|treu, sei ge- *|treu, ge-|
 G,4!<)! E,2 E,2 | (A,4 =G,2)!f! F,E, | (D,4 E,2) D,2 | (C,4 D,2) C,2 | B,,4 D,2 D,2 | %34
w: treu, sei ge-|treu, _ so _|will _ ich|dir _ die|Kro- ne, die|
 C,4 D,2 D,2 | E,4 E,4 |!>(! E,8!>)! | !fermata!A,,6 z2 |] %38
w: Kro- ne des|Le- bens|ge-|ben.|

